img/svg/disigner.svg

<svg width="41.000000" height="42.000000" viewBox="0 0 41 42" fill="none" xmlns="http://www.w3.org/2000/svg" xmlns:xlink="http://www.w3.org/1999/xlink">
	<desc>
			Created with Pixso.
	</desc>
	<defs/>
	<path d="M7.35791 35.0008C7.36426 35.0007 38.543 35.0134 38.543 35.0134C39.8975 35.0134 41 36.1173 41 37.4741L41 39.5393C41 40.8961 39.8979 42 38.543 42L22.438 42C22.1064 42 21.8374 41.7302 21.8374 41.3974C21.8374 41.0647 22.1064 40.7949 22.438 40.7949L34.5151 40.7949L34.5151 39.1092L7.97656 39.1092L7.97656 40.7956C8.02588 40.7952 19.4556 40.7949 19.4556 40.7949C19.7876 40.7949 20.0562 41.0647 20.0562 41.3974C20.0562 41.7302 19.7876 42 19.4556 42L7.23486 41.9887C6.69189 41.9887 6.36035 41.9503 5.59619 41.6079C5.59619 41.6079 2.20117 40.0881 0.545898 39.3446C0.21582 39.1989 0.000488281 38.8687 0 38.505C-0.000488281 38.1374 0.209961 37.8157 0.547852 37.6655L5.59619 35.4054C6.41309 35.0395 6.74414 34.9927 7.35791 35.0008ZM7.97656 37.9042L7.97656 36.2178C8.02637 36.2182 8.07715 36.2186 8.13135 36.2186L34.5151 36.2186L34.5151 37.9042L7.97656 37.9042ZM38.543 40.7949C39.2354 40.7949 39.7988 40.2317 39.7988 39.5393L39.7988 37.474C39.7988 36.7817 39.2354 36.2185 38.543 36.2185L35.7163 36.2185L35.7163 40.7949L38.543 40.7949ZM4.68652 37.1324L4.68652 39.8806C5.125 40.077 6.59668 40.7243 6.77539 40.7655L6.77539 36.248C6.59668 36.2892 4.68652 37.1324 4.68652 37.1324ZM3.48535 37.6702L3.48535 39.3424C2.86279 39.0636 2.24121 38.7855 1.61865 38.506L3.48535 37.6702Z" clip-rule="evenodd" fill="#000000" fill-opacity="1.000000" fill-rule="evenodd"/>
	<path d="M19.9414 31.9977L1.0625 32C0.476562 32 0 31.5284 0 30.9489L0 5.67694C0 5.09729 0.476562 4.62573 1.0625 4.62573L3.7085 4.62573L3.7085 0.992035C3.70557 0.579041 3.93311 0.214615 4.2876 0.0678253C4.6416 -0.0787964 5.0376 0.0154419 5.34668 0.320099L9.71387 4.62582L33.6948 4.62582L33.6948 3.15886C33.6948 2.58931 34.165 2.12599 34.7437 2.12599L37.4688 2.12599C39.416 2.12599 41 3.68922 41 5.61079L41 28.5151C41 30.4354 39.416 31.9976 37.4688 31.9976L22.7798 31.9976C22.4385 31.9976 22.1616 31.7241 22.1616 31.3867C22.1616 31.0493 22.4385 30.7758 22.7798 30.7758L37.4688 30.7758C38.7344 30.7758 39.7637 29.7617 39.7637 28.5151C39.7637 27.2686 38.7344 26.2545 37.4688 26.2545L34.7437 26.2545C34.165 26.2545 33.6948 25.7901 33.6948 25.2193L33.6948 5.84758L10.9531 5.84758L31.0459 25.6581C31.354 25.9619 31.4507 26.3515 31.3047 26.7004C31.1582 27.0502 30.79 27.2762 30.3662 27.2762L4.72705 27.2762C4.16553 27.2762 3.7085 26.8252 3.7085 26.2707L3.7085 5.84758L1.23682 5.84758L1.23682 30.7781L19.9414 30.7759C20.2827 30.7758 20.5596 31.0493 20.5596 31.3867C20.5596 31.7241 20.2827 31.9977 19.9414 31.9977ZM29.6968 26.0545L4.94531 1.65045L4.94531 26.0545L7.59766 26.0545L7.59766 25.1965C7.59766 24.8591 7.87451 24.5856 8.21631 24.5856C8.55762 24.5856 8.83447 24.8591 8.83447 25.1965L8.83447 26.0545L11.4893 26.0545L11.4893 24.3891C11.4893 24.0517 11.7661 23.7782 12.1074 23.7782C12.4487 23.7782 12.7256 24.0517 12.7256 24.3891L12.7256 26.0545L15.3784 26.0545L15.3784 25.1965C15.3784 24.8591 15.6553 24.5856 15.9966 24.5856C16.3379 24.5856 16.6147 24.8591 16.6147 25.1965L16.6147 26.0545L19.2695 26.0545L19.2695 24.3891C19.2695 24.0517 19.5464 23.7782 19.8882 23.7782C20.2295 23.7782 20.5063 24.0517 20.5063 24.3891L20.5063 26.0545L23.1587 26.0545L23.1587 25.1965C23.1587 24.8591 23.4355 24.5856 23.7769 24.5856C24.1187 24.5856 24.3955 24.8591 24.3955 25.1965L24.3955 26.0545L29.6968 26.0545ZM34.9316 3.34776L37.4688 3.34776C38.7339 3.34776 39.7632 4.36287 39.7632 5.61072L39.7632 25.87C39.146 25.3481 38.3438 25.0325 37.4688 25.0325L34.9316 25.0325L34.9316 3.34776Z" clip-rule="evenodd" fill="#000000" fill-opacity="1.000000" fill-rule="evenodd"/>
	<path d="M10.4888 22L16.688 22C16.9214 22 17.356 22 17.5225 21.587C17.6865 21.1808 17.4004 20.8881 17.1919 20.6744L11.0552 14.3914C10.8467 14.1763 10.561 13.8818 10.1646 14.0496C9.76172 14.2202 9.76172 14.666 9.76172 14.9056L9.76172 21.2544C9.76172 21.7074 10.0474 22 10.4888 22ZM15.7808 20.8518L10.8809 15.8349L10.8809 20.8518L15.7808 20.8518Z" clip-rule="evenodd" fill="#000000" fill-opacity="1.000000" fill-rule="evenodd"/>
</svg>

<svg width="41" height="42" fill="none" xmlns="http://www.w3.org/2000/svg"><path d="M7.358 35l31.185.013A2.462 2.462 0 0141 37.474v2.065A2.462 2.462 0 0138.543 42H22.438a.602.602 0 010-1.205h12.077v-1.686H7.977v1.687l11.479-.001a.601.601 0 010 1.205l-12.221-.011c-.543 0-.875-.039-1.639-.381 0 0-3.395-1.52-5.05-2.263a.92.92 0 01-.546-.84c0-.368.21-.69.548-.84l5.048-2.26c.817-.366 1.148-.412 1.762-.404zm.619 2.904v-1.686h26.538v1.686H7.977zm30.566 2.89c.692 0 1.256-.562 1.256-1.255v-2.065c0-.692-.564-1.255-1.256-1.255h-2.827v4.576h2.827zM4.687 37.133v2.749c.438.196 1.91.843 2.088.885v-4.518c-.178.041-2.088.884-2.088.884zm-1.202.538v1.672c-.622-.278-1.244-.556-1.866-.836l1.866-.836zm16.456-5.673L1.063 32A1.058 1.058 0 010 30.949V5.677c0-.58.477-1.051 1.063-1.051h2.646V.992c-.003-.413.224-.777.579-.924.354-.147.75-.053 1.059.252l4.367 4.306h23.98V3.159c0-.57.471-1.033 1.05-1.033h2.725C39.416 2.126 41 3.689 41 5.611v22.904c0 1.92-1.584 3.483-3.531 3.483h-14.69a.615.615 0 01-.617-.611c0-.338.277-.611.618-.611h14.689c1.265 0 2.295-1.014 2.295-2.26 0-1.247-1.03-2.261-2.295-2.261h-2.725a1.043 1.043 0 01-1.05-1.036V5.848h-22.74l20.092 19.81c.308.304.405.694.259 1.042-.147.35-.515.576-.939.576H4.727a1.013 1.013 0 01-1.019-1.005V5.848H1.237v24.93l18.704-.002c.342 0 .619.273.619.61a.615.615 0 01-.619.612zm9.756-5.944L4.945 1.65v24.405h2.653v-.858c0-.338.277-.611.618-.611.342 0 .618.273.618.61v.858h2.655V24.39c0-.337.277-.61.618-.61.342 0 .619.273.619.61v1.666h2.652v-.858c0-.338.277-.611.619-.611.34 0 .618.273.618.61v.858h2.655V24.39c0-.337.276-.61.618-.61.341 0 .618.273.618.61v1.666h2.653v-.858c0-.338.277-.611.618-.611.342 0 .618.273.618.61v.858h5.302zm5.235-22.706h2.537c1.265 0 2.294 1.015 2.294 2.263V25.87a3.544 3.544 0 00-2.294-.838h-2.537V3.348z" clip-rule="evenodd" fill="#000" fill-rule="evenodd"/><path d="M10.489 22h6.199c.233 0 .668 0 .835-.413.163-.406-.123-.699-.331-.913l-6.137-6.283c-.208-.215-.494-.51-.89-.341-.403.17-.403.616-.403.856v6.348c0 .453.285.746.727.746zm5.292-1.148l-4.9-5.017v5.017h4.9z" clip-rule="evenodd" fill="#000" fill-rule="evenodd"/></svg>
